public/flags/AF.svg

<svg fill="none" height="53" viewBox="0 0 61 53" width="61" xmlns="http://www.w3.org/2000/svg" xmlns:xlink="http://www.w3.org/1999/xlink"><mask id="a" height="43" maskUnits="userSpaceOnUse" width="59" x="1" y="3"><rect fill="#fff" height="42.5" rx="4.24286" width="59" x="1" y="3"/></mask><rect fill="#fff" height="42.5" rx="4.24286" width="59" x="1" y="3"/><g mask="url(#a)"><path d="m29.0952 3h30.9048v42.5h-30.9048z" fill="#1ab11f"/><path clip-rule="evenodd" d="m1 45.5h19.6667v-42.5h-19.6667z" fill="#262626" fill-rule="evenodd"/><path clip-rule="evenodd" d="m20.6667 45.5h19.6667v-42.5h-19.6667z" fill="#dc0d18" fill-rule="evenodd"/><g fill="#fff"><path d="m26.2951 22.8333c0-.7811-.6332-1.4143-1.4142-1.4143-.7811 0-1.4143.6332-1.4143 1.4143zm.6746 6.1255c.6741.3945 1.5404.1678 1.9349-.5064.3945-.6741.1678-1.5404-.5064-1.9349zm5.7871-2.5367c-.6564.4234-.8453 1.2987-.422 1.9551.4234.6564 1.2987.8453 1.9551.4219zm4.7764-3.5888c0-.7811-.6332-1.4143-1.4142-1.4143-.7811 0-1.4143.6332-1.4143 1.4143zm-14.0666 0c0 2.6136 1.4079 4.8995 3.5031 6.1255l1.4285-2.4413c-1.2568-.7354-2.1031-2.1081-2.1031-3.6842zm10.8233 5.9658c1.9506-1.2581 3.2433-3.4617 3.2433-5.9658h-2.8285c0 1.5102-.7768 2.8334-1.9479 3.5888z" opacity=".75"/><path clip-rule="evenodd" d="m30.5 25.6667c1.5516 0 2.8095-1.9028 2.8095-4.25 0-2.3473-1.2579-4.25-2.8095-4.25-1.5517 0-2.8096 1.9027-2.8096 4.25 0 2.3472 1.2579 4.25 2.8096 4.25z" fill-opacity=".5" fill-rule="evenodd"/></g></g></svg>

<svg width="61" height="53" viewBox="0 0 61 53" fill="none" xmlns="http://www.w3.org/2000/svg">
<rect x="1" y="3" width="59" height="42.5" rx="4.24286" fill="white"/>
<mask id="mask0" mask-type="alpha" maskUnits="userSpaceOnUse" x="1" y="3" width="59" height="43">
<rect x="1" y="3" width="59" height="42.5" rx="4.24286" fill="white"/>
</mask>
<g mask="url(#mask0)">
<rect x="29.0952" y="3" width="30.9048" height="42.5" fill="#1AB11F"/>
<path fill-rule="evenodd" clip-rule="evenodd" d="M1 45.5H20.6667V3H1V45.5Z" fill="#262626"/>
<path fill-rule="evenodd" clip-rule="evenodd" d="M20.6667 45.5H40.3334V3H20.6667V45.5Z" fill="#DC0D18"/>
<path opacity="0.75" d="M26.2951 22.8333C26.2951 22.0522 25.6619 21.419 24.8809 21.419C24.0998 21.419 23.4666 22.0522 23.4666 22.8333H26.2951ZM26.9697 28.9588C27.6438 29.3533 28.5101 29.1266 28.9046 28.4524C29.2991 27.7783 29.0724 26.912 28.3982 26.5175L26.9697 28.9588ZM32.7568 26.4221C32.1004 26.8455 31.9115 27.7208 32.3348 28.3772C32.7582 29.0336 33.6335 29.2225 34.2899 28.7991L32.7568 26.4221ZM37.5332 22.8333C37.5332 22.0522 36.9 21.419 36.119 21.419C35.3379 21.419 34.7047 22.0522 34.7047 22.8333H37.5332ZM23.4666 22.8333C23.4666 25.4469 24.8745 27.7328 26.9697 28.9588L28.3982 26.5175C27.1414 25.7821 26.2951 24.4094 26.2951 22.8333H23.4666ZM34.2899 28.7991C36.2405 27.541 37.5332 25.3374 37.5332 22.8333H34.7047C34.7047 24.3435 33.9279 25.6667 32.7568 26.4221L34.2899 28.7991Z" fill="white"/>
<path fill-rule="evenodd" clip-rule="evenodd" d="M30.5 25.6667C32.0516 25.6667 33.3095 23.7639 33.3095 21.4167C33.3095 19.0694 32.0516 17.1667 30.5 17.1667C28.9483 17.1667 27.6904 19.0694 27.6904 21.4167C27.6904 23.7639 28.9483 25.6667 30.5 25.6667Z" fill="white" fill-opacity="0.5"/>
</g>
</svg>
